src/categories/32/applications-utilities.svg

<?xml version="1.0" encoding="UTF-8"?>
<svg width="32" height="32" version="1.1" viewBox="0 0 32 32" xmlns="http://www.w3.org/2000/svg" xmlns:cc="http://creativecommons.org/ns#" xmlns:dc="http://purl.org/dc/elements/1.1/" xmlns:rdf="http://www.w3.org/1999/02/22-rdf-syntax-ns#" xmlns:xlink="http://www.w3.org/1999/xlink">
 <metadata>
  <rdf:RDF>
   <cc:Work rdf:about="">
    <dc:format>image/svg+xml</dc:format>
    <dc:type rdf:resource="http://purl.org/dc/dcmitype/StillImage"/>
   </cc:Work>
  </rdf:RDF>
 </metadata>
 <defs>
  <linearGradient id="a" x2="0" y1="532.8" y2="527.8" gradientUnits="userSpaceOnUse">
   <stop stop-color="#ebf1f1" offset="0"/>
   <stop stop-color="#fcfcfc" offset="1"/>
  </linearGradient>
  <linearGradient id="b" x1="16" x2="16" y1="4" y2="11" gradientUnits="userSpaceOnUse">
   <stop stop-color="#fdfefe" offset="0"/>
   <stop stop-color="#dfe4e6" offset="1"/>
  </linearGradient>
  <linearGradient id="e" x1="7.5" x2="7.5" y1="12" y2="17" gradientUnits="userSpaceOnUse" xlink:href="#a"/>
  <linearGradient id="d" x1="7.5" x2="7.5" y1="12" y2="17" gradientTransform="translate(17)" gradientUnits="userSpaceOnUse" xlink:href="#a"/>
 </defs>
 <rect x="1" y=".99997" width="30" height="30" rx="8" ry="8" fill="#fb3646"/>
 <path d="m9 1c-4.432 0-8 3.568-8 8v1h30v-1c0-4.432-3.568-8-8-8z" opacity=".15"/>
 <path d="m11 4c-1.662 0-3 1.338-3 3v3h2v-3c0-0.55401 0.44598-1 1-1h10c0.55402 0 1 0.44599 1 1v3h2v-3c0-1.662-1.338-3-3-3z" fill="url(#b)" stroke-linecap="square" stroke-width=".1"/>
 <path d="m7.5 12a2.5 2.5 0 0 0-2.5 2.5 2.5 2.5 0 0 0 2.5 2.5 2.5 2.5 0 0 0 2.5-2.5 2.5 2.5 0 0 0-2.5-2.5zm0 1a1.5 1.5 0 0 1 1.5 1.5 1.5 1.5 0 0 1-1.5 1.5 1.5 1.5 0 0 1-1.5-1.5 1.5 1.5 0 0 1 1.5-1.5z" fill="url(#e)" fill-rule="evenodd" style="paint-order:normal"/>
 <path d="m24.5 12a2.5 2.5 0 0 0-2.5 2.5 2.5 2.5 0 0 0 2.5 2.5 2.5 2.5 0 0 0 2.5-2.5 2.5 2.5 0 0 0-2.5-2.5zm0 1a1.5 1.5 0 0 1 1.5 1.5 1.5 1.5 0 0 1-1.5 1.5 1.5 1.5 0 0 1-1.5-1.5 1.5 1.5 0 0 1 1.5-1.5z" fill="url(#d)" fill-rule="evenodd" style="paint-order:normal"/>
</svg>

<svg width="32" height="32" xmlns="http://www.w3.org/2000/svg" xmlns:xlink="http://www.w3.org/1999/xlink"><defs><linearGradient id="a" x2="0" y1="532.8" y2="527.8" gradientUnits="userSpaceOnUse"><stop stop-color="#ebf1f1" offset="0"/><stop stop-color="#fcfcfc" offset="1"/></linearGradient><linearGradient id="b" x1="16" x2="16" y1="4" y2="11" gradientUnits="userSpaceOnUse"><stop stop-color="#fdfefe" offset="0"/><stop stop-color="#dfe4e6" offset="1"/></linearGradient><linearGradient id="c" x1="7.5" x2="7.5" y1="12" y2="17" gradientUnits="userSpaceOnUse" xlink:href="#a"/><linearGradient id="d" x1="7.5" x2="7.5" y1="12" y2="17" gradientTransform="translate(17)" gradientUnits="userSpaceOnUse" xlink:href="#a"/></defs><rect x="1" y="1" width="30" height="30" rx="8" ry="8" fill="#fb3646"/><path d="M9 1C4.568 1 1 4.568 1 9v1h30V9c0-4.432-3.568-8-8-8z" opacity=".15"/><path d="M11 4C9.338 4 8 5.338 8 7v3h2V7c0-.554.446-1 1-1h10c.554 0 1 .446 1 1v3h2V7c0-1.662-1.338-3-3-3z" fill="url(#b)"/><path d="M7.5 12A2.5 2.5 0 0 0 5 14.5 2.5 2.5 0 0 0 7.5 17a2.5 2.5 0 0 0 2.5-2.5A2.5 2.5 0 0 0 7.5 12zm0 1A1.5 1.5 0 0 1 9 14.5 1.5 1.5 0 0 1 7.5 16 1.5 1.5 0 0 1 6 14.5 1.5 1.5 0 0 1 7.5 13z" fill="url(#c)" fill-rule="evenodd" style="paint-order:normal"/><path d="M24.5 12a2.5 2.5 0 0 0-2.5 2.5 2.5 2.5 0 0 0 2.5 2.5 2.5 2.5 0 0 0 2.5-2.5 2.5 2.5 0 0 0-2.5-2.5zm0 1a1.5 1.5 0 0 1 1.5 1.5 1.5 1.5 0 0 1-1.5 1.5 1.5 1.5 0 0 1-1.5-1.5 1.5 1.5 0 0 1 1.5-1.5z" fill="url(#d)" fill-rule="evenodd" style="paint-order:normal"/></svg>
